X:134
M:C|
L:1/8
K:G Minor
c|B/c/d Gd BGdG|A/B/c Fc AFcA|B/c/d Gd BGdG|^F/G/A DF G2G:|
g/a/b fd ~Bdfd|cdcB ABcA|Bdg^f gdce|dBcA G2G||

